www/assets/icons/panorama_wide_angle_select.svg

<svg xmlns="http://www.w3.org/2000/svg" width="24" height="24" viewBox="0 0 24 24" fill='currentColor'><path d="M12 4c-2.73 0-5.22.24-7.95.72l-.93.16-.25.9C2.29 7.85 2 9.93 2 12s.29 4.15.87 6.22l.25.89.93.16c2.73.49 5.22.73 7.95.73s5.22-.24 7.95-.72l.93-.16.25-.89c.58-2.08.87-4.16.87-6.23s-.29-4.15-.87-6.22l-.25-.89-.93-.16C17.22 4.24 14.73 4 12 4"/></svg>

<svg width="24" height="24" viewBox="0 0 24 24" xmlns="http://www.w3.org/2000/svg" fill='currentColor'><path d="M12 4C9.27 4 6.78 4.24 4.05 4.72L3.12 4.88L2.87 5.78C2.29 7.85 2 9.93 2 12C2 14.07 2.29 16.15 2.87 18.22L3.12 19.11L4.05 19.27C6.78 19.76 9.27 20 12 20C14.73 20 17.22 19.76 19.95 19.28L20.88 19.12L21.13 18.23C21.71 16.15 22 14.07 22 12C22 9.93 21.71 7.85 21.13 5.78L20.88 4.89L19.95 4.73C17.22 4.24 14.73 4 12 4Z"/></svg>
